packages/core/src/svgs/kai.svg

<svg width="24" height="24" viewBox="0 0 24 24" fill="none" xmlns="http://www.w3.org/2000/svg">
<g clip-path="url(#clip0_31_12214)">
<path d="M0 0H24V24H0V0Z" fill="#F0F3FA"/>
<path d="M11.1429 10.7144L9 5.54541L12.4286 7.28584L11.1429 10.7144Z" fill="#7E4778"/>
<path d="M11.1429 10.7142V7.71422L12.4286 7.28564L11.1429 10.7142Z" fill="#9B1B2E"/>
<path d="M11.1429 7.71441L9 5.54541L12.4286 7.28584L11.1429 7.71441Z" fill="#D3302D"/>
<path d="M19.9286 9.85693H16.2857L18 12.8569L19.9286 9.85693Z" fill="#9B2026"/>
<path d="M16.2857 9.85693L13.0714 11.1426L18 12.8569L16.2857 9.85693Z" fill="#BD282E"/>
<path d="M14.5341 6.85693L13.0714 11.1426L16.2857 9.85693L14.5341 6.85693Z" fill="#DD2A2D"/>
<path d="M18.2143 6.21436L16.2857 9.85721H19.9286L18.2143 6.21436Z" fill="#BC2328"/>
<path d="M14.5341 6.85721L16.2857 9.85721L18.2143 6.21436L14.5341 6.85721Z" fill="#EE4642"/>
<path d="M13.2857 19.0716L10.9286 12.4287L16.7143 14.5716L13.2857 19.0716Z" fill="#D5302D"/>
<path d="M13.2857 19.0713V14.5713H16.7143L13.2857 19.0713Z" fill="#9D1C21"/>
<path d="M13.2857 14.5716L10.9286 12.4287L16.7143 14.5716H13.2857Z" fill="#BD2C33"/>
<path d="M7.07143 6L4.5 9.21429L7.07143 15.2143L11.5714 19.5L7.07143 6Z" fill="#797CB3"/>
<path d="M9.21427 12.4287L7.07141 15.2144L11.5714 19.5001L9.21427 12.4287Z" fill="#9A1C31"/>
<path d="M7.07143 10.9286L4.5 9.21436L7.07143 15.2144L9.21429 12.4286L7.07143 10.9286Z" fill="#7F4778"/>
</g>
<defs>
<clipPath id="clip0_31_12214">
<rect width="24" height="24" fill="white"/>
</clipPath>
</defs>
</svg>

<svg xmlns="http://www.w3.org/2000/svg" width="24" height="24" fill="none" viewBox="0 0 24 24"><g clip-path="url(#a)"><path fill="#F0F3FA" d="M0 0h24v24H0z"/><path fill="#7E4778" d="M11.143 10.714 9 5.545l3.429 1.74z"/><path fill="#9B1B2E" d="M11.143 10.714v-3l1.286-.428z"/><path fill="#D3302D" d="M11.143 7.714 9 5.545l3.429 1.74z"/><path fill="#9B2026" d="M19.929 9.857h-3.643l1.714 3z"/><path fill="#BD282E" d="m16.286 9.857-3.215 1.286L18 12.857z"/><path fill="#DD2A2D" d="m14.534 6.857-1.463 4.286 3.215-1.286z"/><path fill="#BC2328" d="m18.214 6.214-1.928 3.643h3.643z"/><path fill="#EE4642" d="m14.534 6.857 1.752 3 1.928-3.643z"/><path fill="#D5302D" d="m13.286 19.072-2.357-6.643 5.785 2.143z"/><path fill="#9D1C21" d="M13.286 19.071v-4.5h3.428z"/><path fill="#BD2C33" d="m13.286 14.572-2.357-2.143 5.785 2.143z"/><path fill="#797CB3" d="M7.071 6 4.5 9.214l2.571 6 4.5 4.286z"/><path fill="#9A1C31" d="m9.214 12.429-2.143 2.785 4.5 4.286z"/><path fill="#7F4778" d="M7.071 10.929 4.5 9.214l2.571 6 2.143-2.785z"/></g><defs><clipPath id="a"><path fill="#fff" d="M0 0h24v24H0z"/></clipPath></defs></svg>
